icon/cg/shutterstock.svg

<svg viewBox="0 0 24 24" fill="none" xmlns="http://www.w3.org/2000/svg" height="1em" width="1em">
  <path d="M12 17C12 17.5523 12.4477 18 13 18H17C17.5523 18 18 17.5523 18 17V13C18 12.4477 17.5523 12 17 12H16V16H12V17Z" fill="currentColor"/>
  <path d="M11 6C11.5523 6 12 6.44772 12 7V8H8V12H7C6.44772 12 6 11.5523 6 11V7C6 6.44772 6.44772 6 7 6H11Z" fill="currentColor"/>
  <path fill-rule="evenodd" clip-rule="evenodd" d="M5 2C3.34315 2 2 3.34315 2 5V19C2 20.6569 3.34315 22 5 22H19C20.6569 22 22 20.6569 22 19V5C22 3.34315 20.6569 2 19 2H5ZM19 4H5C4.44771 4 4 4.44772 4 5V19C4 19.5523 4.44772 20 5 20H19C19.5523 20 20 19.5523 20 19V5C20 4.44771 19.5523 4 19 4Z" fill="currentColor"/>
</svg>

<svg width="24" height="24" fill="none" xmlns="http://www.w3.org/2000/svg"><path d="M12 17a1 1 0 0 0 1 1h4a1 1 0 0 0 1-1v-4a1 1 0 0 0-1-1h-1v4h-4v1ZM11 6a1 1 0 0 1 1 1v1H8v4H7a1 1 0 0 1-1-1V7a1 1 0 0 1 1-1h4Z" fill="currentColor"/><path fill-rule="evenodd" clip-rule="evenodd" d="M5 2a3 3 0 0 0-3 3v14a3 3 0 0 0 3 3h14a3 3 0 0 0 3-3V5a3 3 0 0 0-3-3H5Zm14 2H5a1 1 0 0 0-1 1v14a1 1 0 0 0 1 1h14a1 1 0 0 0 1-1V5a1 1 0 0 0-1-1Z" fill="currentColor"/></svg>
